build/redact/BorderBoldLeftOutline.svg

<svg xmlns="http://www.w3.org/2000/svg" fill="none" viewBox="0 0 24 24" focusable="false"><path d="M0 0H24V24H0z" transform="matrix(1 0 0 -1 0 24)"/><path fill="#74767B" fill-rule="evenodd" d="M7.55078 5.30867C7.58652 5.30706 7.6225 5.30625 7.65869 5.30625L8.31572 5.30625C8.67471 5.30625 8.96572 5.01523 8.96572 4.65625C8.96572 4.29727 8.67471 4.00625 8.31572 4.00625L7.65869 4.00625C7.62261 4.00625 7.58664 4.00678 7.55078 4.00782L7.55078 4L7 4C5.34315 4 4 5.34315 4 7L4 17C4 18.6569 5.34315 20 7 20L7.55078 20C7.58664 20.001 7.62261 20.0016 7.65869 20.0016L8.31572 20.0016C8.67471 20.0016 8.96572 19.7105 8.96572 19.3516C8.96572 18.9926 8.67471 18.7016 8.31572 18.7016L7.65869 18.7016C7.62249 18.7016 7.58652 18.7007 7.55078 18.6991L7.55078 12.6294C7.6073 12.6454 7.66695 12.654 7.72861 12.654L8.92373 12.654C9.28271 12.654 9.57373 12.363 9.57373 12.004C9.57373 11.645 9.28272 11.354 8.92373 11.354L7.72861 11.354C7.66695 11.354 7.6073 11.3626 7.55078 11.3786L7.55078 5.30867ZM11.3482 4.00625C10.9892 4.00625 10.6982 4.29727 10.6982 4.65625C10.6982 5.01523 10.9892 5.30625 11.3482 5.30625L12.6622 5.30625C13.0212 5.30625 13.3122 5.01523 13.3122 4.65625C13.3122 4.29727 13.0212 4.00625 12.6622 4.00625L11.3482 4.00625ZM15.6947 4.00625C15.3357 4.00625 15.0447 4.29727 15.0447 4.65625C15.0447 5.01523 15.3357 5.30625 15.6947 5.30625L16.3517 5.30625C16.5431 5.30625 16.7284 5.32901 16.9052 5.37167C17.2542 5.45584 17.6054 5.24117 17.6895 4.89219C17.7019 4.84098 17.7078 4.78971 17.7078 4.73925C17.7078 4.4459 17.5078 4.17972 17.2101 4.10791C16.9341 4.04135 16.6466 4.00625 16.3517 4.00625L15.6947 4.00625ZM19.9 6.79788C19.8159 6.4489 19.4647 6.23424 19.1157 6.31841C18.818 6.39023 18.618 6.6564 18.618 6.94976C18.618 7.00022 18.6239 7.05148 18.6363 7.1027C18.6789 7.27956 18.7017 7.46481 18.7017 7.65625L18.7017 8.31345C18.7017 8.67244 18.9927 8.96345 19.3517 8.96345C19.7107 8.96345 20.0017 8.67244 20.0017 8.31345L20.0017 7.65625C20.0017 7.36136 19.9666 7.07381 19.9 6.79788ZM12.0001 9.57764C12.3591 9.57764 12.6501 9.28662 12.6501 8.92764L12.6501 7.73252C12.6501 7.37353 12.3591 7.08252 12.0001 7.08252C11.6411 7.08252 11.3501 7.37353 11.3501 7.73252L11.3501 8.92764C11.3501 9.28662 11.6411 9.57764 12.0001 9.57764ZM20.0017 11.3467C20.0017 10.9877 19.7107 10.6967 19.3517 10.6967C18.9927 10.6967 18.7017 10.9877 18.7017 11.3467L18.7017 12.6611C18.7017 13.0201 18.9927 13.3111 19.3517 13.3111C19.7107 13.3111 20.0017 13.0201 20.0017 12.6611L20.0017 11.3467ZM15.0763 11.354C14.7173 11.354 14.4263 11.645 14.4263 12.004C14.4263 12.363 14.7173 12.654 15.0763 12.654L16.2714 12.654C16.6304 12.654 16.9214 12.363 16.9214 12.004C16.9214 11.645 16.6304 11.354 16.2714 11.354L15.0763 11.354ZM12.0001 16.9233C12.3591 16.9233 12.6501 16.6323 12.6501 16.2733L12.6501 15.0782C12.6501 14.7192 12.3591 14.4282 12.0001 14.4282C11.6411 14.4282 11.3501 14.7192 11.3501 15.0782L11.3501 16.2733C11.3501 16.6323 11.6411 16.9233 12.0001 16.9233ZM20.0017 15.6944C20.0017 15.3354 19.7107 15.0444 19.3517 15.0444C18.9927 15.0444 18.7017 15.3354 18.7017 15.6944L18.7017 16.3516C18.7017 16.543 18.6789 16.7283 18.6363 16.9051C18.6239 16.9563 18.618 17.0076 18.618 17.0581C18.618 17.3514 18.818 17.6176 19.1157 17.6894C19.4647 17.7736 19.8159 17.5589 19.9 17.2099C19.9666 16.934 20.0017 16.6465 20.0017 16.3516L20.0017 15.6944ZM17.2101 19.8999C17.5078 19.8281 17.7078 19.5619 17.7078 19.2686C17.7078 19.2181 17.7019 19.1668 17.6895 19.1156C17.6054 18.7666 17.2542 18.552 16.9052 18.6361C16.7284 18.6788 16.5431 18.7016 16.3517 18.7016L15.6947 18.7016C15.3357 18.7016 15.0447 18.9926 15.0447 19.3516C15.0447 19.7105 15.3357 20.0016 15.6947 20.0016L16.3517 20.0016C16.6466 20.0016 16.9341 19.9665 17.2101 19.8999ZM11.3482 18.7016C10.9892 18.7016 10.6982 18.9926 10.6982 19.3516C10.6982 19.7105 10.9892 20.0016 11.3482 20.0016L12.6622 20.0016C13.0212 20.0016 13.3122 19.7105 13.3122 19.3516C13.3122 18.9926 13.0212 18.7016 12.6622 18.7016L11.3482 18.7016Z"/></svg>

<svg xmlns="http://www.w3.org/2000/svg" fill="none" viewBox="0 0 24 24" focusable="false"><path fill="#74767B" fill-rule="evenodd" d="M7.55 5.3h.76c.36 0 .65-.29.65-.65S8.67 4 8.31 4H7C5.34 4 4 5.34 4 7v10c0 1.65 1.34 3 3 3h1.31c.36 0 .65-.29.65-.65s-.29-.65-.65-.65h-.66c-.03 0-.07 0-.1-.01v-6.07c.05.02.11.03.17.03h1.2c.36 0 .65-.29.65-.65s-.29-.65-.65-.65h-1.2a1 1 0 0 0-.17.02zM11.34 4c-.36 0-.65.29-.65.65s.29.65.65.65h1.32c.36 0 .65-.29.65-.65S13.02 4 12.66 4zm4.35 0c-.36 0-.65.29-.65.65s.29.65.65.65h.66c.19 0 .37.02.55.07.35.08.7-.13.78-.48.02-.05.02-.11.02-.16 0-.29-.2-.56-.5-.63-.27-.06-.56-.1-.85-.1zm4.2 2.79a.646.646 0 0 0-.78-.48c-.3.08-.5.34-.5.63 0 .06.01.11.02.16.04.17.07.36.07.55v.66c0 .36.29.65.65.65s.65-.29.65-.65v-.66c0-.29-.04-.58-.11-.86M12 9.57c.35 0 .64-.29.64-.65V7.73c0-.36-.29-.65-.64-.65-.36 0-.65.29-.65.65v1.19c0 .36.29.65.65.65m8 1.77c0-.36-.29-.65-.65-.65s-.65.29-.65.65v1.32c0 .36.29.65.65.65s.65-.29.65-.65zm-4.93.01c-.36 0-.65.29-.65.65s.29.65.65.65h1.2c.36 0 .65-.29.65-.65s-.29-.65-.65-.65zM12 16.92c.35 0 .64-.29.64-.65v-1.2c0-.36-.29-.65-.64-.65-.36 0-.65.29-.65.65v1.2c0 .36.29.65.65.65m8-1.23c0-.36-.29-.65-.65-.65s-.65.29-.65.65v.66c0 .19-.03.37-.07.55-.01.05-.02.1-.02.15 0 .3.2.56.5.63.35.09.7-.13.78-.48.07-.27.11-.56.11-.85zm-2.8 4.2c.3-.07.5-.33.5-.63 0-.05 0-.1-.02-.15a.646.646 0 0 0-.78-.48c-.18.04-.36.07-.55.07h-.66c-.36 0-.65.29-.65.65s.29.65.65.65h.66c.29 0 .58-.04.85-.11m-5.86-1.19c-.36 0-.65.29-.65.65s.29.65.65.65h1.32c.36 0 .65-.29.65-.65s-.29-.65-.65-.65z"/></svg>
